X:1
T:Title
%%score { ( 1 3 ) | 2 }
L:1/8
M:3/4
K:Bb
V:1 treble nm="Grand Piano"
V:3 treble 
V:2 bass 
V:1
 z2 z2[Q:1/4=94] [DF]>[DF] | [DF]2 [B,D]2 [CE]2 | [DF]4 [FB]>[FA] | [EG]2 [GB]2 [FA]>[EG] | %4
 [EG]2 [DF]2 [DF]2 | [DF]2 [B,D]2 [CE]2 | [DF]2 [DB]2 [FB]2 | z2 z2 [DB]2 | c4 F2 | %9
 [DF]2 [DB]2 [FA]2 | [FA]2 [EG]2 [=EG]2 | [=EG]2 [Ec]2 [CGB]2 | [CGB]2 [CFA]2 [CFA]2 | z2 z2 d2 | %14
 [Ge]4 [Gc]>[Gc] | [EFc]2 [DFB]2 [CFA]2 |[M:2/4] [DFB]4 |] %17
V:2
 z2 z2 [B,,B,]>[B,,B,] | [B,,B,]2 [B,,F,]2 [B,,F,]2 | [B,,B,]4 [D,B,]>[D,B,] | %3
 [E,B,]2 [E,B,]2 [E,B,]2 | [B,,B,]2 [B,,B,]2 [B,,B,]2 | [B,,B,]2 [B,,F,]2 [B,,F,]2 | %6
 [B,,B,]2 [B,,B,]2 [D,F,]2 | [C,F,]2 [C,F,]2 .[B,,F,]2 | [F,A,F]4 [F,A,E]2 | %9
 [B,,B,]2 [B,,B,]2 [D,B,]2 | [E,B,]2 [E,B,]2 [C,C]2 | [C,C]2 [C,G,]2 C,2 | F,2 F,2 F,>E, | %13
 D,2[K:treble] [F,A,F]2 .[B,F]2 | [E,B,]4 [E,E]>[E,E] | F,2 F,2 F,2 |[M:2/4] B,,4 |] %17
V:3
 x6 | x6 | x6 | x6 | x6 | x6 | x6 | [EB]2 [EA]2 z G, | x6 | x6 | x6 | x6 | x6 | [B,FB]2 c2 z _A | %14
 x6 | x6 |[M:2/4] x4 |] %17

